images/prev.svg

<svg width="30" height="30" viewBox="0 0 30 30" fill="none" xmlns="http://www.w3.org/2000/svg">
<path d="M15 30C6.72794 30 0 23.2721 0 15C0 6.72794 6.72794 0 15 0C23.2721 0 30 6.72794 30 15C30 23.2721 23.2721 30 15 30ZM15 1.21324C7.39583 1.21324 1.21324 7.39583 1.21324 15C1.21324 22.6042 7.39583 28.7868 15 28.7868C22.6042 28.7868 28.7868 22.6042 28.7868 15C28.7868 7.39583 22.6042 1.21324 15 1.21324Z" fill="#FAF8F5"/>
<path d="M17.1324 19.9816C17.0159 20.098 16.8566 20.1593 16.7034 20.1593C16.5502 20.1593 16.3909 20.098 16.2745 19.9816L11.7218 15.4289C11.6054 15.3125 11.5441 15.1593 11.5441 15C11.5441 14.8407 11.6054 14.6875 11.7218 14.5711L16.2745 10.0184C16.5135 9.77941 16.8934 9.77941 17.1324 10.0184C17.3713 10.2574 17.3713 10.6373 17.1324 10.8762L13.0086 15L17.1324 19.1238C17.3652 19.3627 17.3652 19.7488 17.1324 19.9816Z" fill="#FAF8F5"/>
</svg>

<svg width="30" height="30" fill="none" xmlns="http://www.w3.org/2000/svg"><path d="M15 30C6.728 30 0 23.272 0 15S6.728 0 15 0s15 6.728 15 15-6.728 15-15 15zm0-28.787C7.396 1.213 1.213 7.396 1.213 15c0 7.604 6.183 13.787 13.787 13.787 7.604 0 13.787-6.183 13.787-13.787 0-7.604-6.183-13.787-13.787-13.787z" fill="#FAF8F5"/><path d="M17.132 19.982a.614.614 0 01-.429.177.613.613 0 01-.428-.177l-4.553-4.553a.603.603 0 010-.858l4.553-4.553a.603.603 0 01.857 0 .603.603 0 010 .858L13.01 15l4.123 4.124a.614.614 0 010 .858z" fill="#FAF8F5"/></svg>
